icons/extensions-sync-upload-symbolic.svg

<svg version="1.1" viewBox="0 0 16 16" xmlns="http://www.w3.org/2000/svg">
 <g id="Icons with numbers" transform="translate(0 -.5)" style="fill-rule:evenodd;fill:#bebebe">
  <g id="Group" transform="translate(-768,-432)" style="fill:#bebebe">
   <path id="Rectangle 217 copy" d="m769 446h12v-3h2v5h-14zm0-3h2v3h-2zm9-5v7h-4v-7h-2l4-5 4 5z" style="fill:#bebebe"/>
  </g>
 </g>
</svg>

<?xml version="1.0" ?>
<svg height="16px" version="1.1" viewBox="0 0 16 16" width="16px"
  xmlns="http://www.w3.org/2000/svg"
  xmlns:sketch="http://www.bohemiancoding.com/sketch/ns"
  xmlns:xlink="http://www.w3.org/1999/xlink">
  <title/>
  <defs/>
  <g fill="none" fill-rule="evenodd" id="Icons with numbers" stroke="none" stroke-width="1">
    <g fill="#ffffff" id="Group" transform="translate(-768.000000, -432.000000)">
      <path d="M769,446 L781,446 L781,443 L783,443 L783,446 L783,448 L769,448 Z M769,443 L771,443 L771,446 L769,446 Z M778,438 L778,445 L774,445 L774,438 L772,438 L776,433 L780,438 Z M778,438" id="Rectangle 217 copy"/>
    </g>
  </g>
</svg>
